X:1
T:Wise Maid, The
T:All Around the World
C:John Doherty
R:reel
M:4/4
L:1/8
K:D
~F3G FEDE|FAAB AFED|d2 (3efg fdec|dBAF BE~E2|
~F3G FEDE|FAAB AFED|d2 (3efg fdec|1 dBAG FD ~D2:|2 dBAG FDFA|]
d2AG FDFA|dfaf gfeg|fAdf eAce|dfed cA~A2|
BDGB ADFA|dfaf gfed|(3Bcd ec dBAG|1 FGEF DEFA:|2 FGEG FDDE|]
</abc>
<abc>
